/* XPM */
static char *cf9afb6a2a3d449fb5fb5b4778eff938A06r8i7ViT0bFHd7[] = {
/* columns rows colors chars-per-pixel */
"64 64 256 2 ",
"   c #190903",
".  c #1E110B",
"X  c #280B02",
"o  c #25140C",
"O  c #2C150C",
"+  c #291509",
"@  c #321A0D",
"#  c #361609",
"$  c #251B12",
"%  c #2B1C14",
"&  c #271613",
"*  c #331D13",
"=  c #381E16",
"-  c #330C01",
";  c #2D221A",
":  c #2C2117",
">  c #322116",
",  c #3A2215",
"<  c #33241B",
"1  c #3B241B",
"2  c #38291E",
"3  c #352B24",
"4  c #3B2C25",
"5  c #3A2E29",
"6  c #362823",
"7  c #3D3026",
"8  c #3D322B",
"9  c #3C3633",
"0  c #2D2321",
"q  c #431C0D",
"w  c #46271A",
"e  c #572818",
"r  c #522915",
"t  c #712D19",
"y  c #422E23",
"u  c #442C26",
"i  c #433126",
"p  c #43342B",
"a  c #4A362A",
"s  c #4B3A2D",
"d  c #483529",
"f  c #523B2D",
"g  c #5A372A",
"h  c #433632",
"j  c #453A33",
"k  c #4A3C33",
"l  c #463C39",
"z  c #533E32",
"x  c #503F38",
"c  c #663827",
"v  c #783926",
"b  c #783E34",
"n  c #4C423C",
"m  c #4B4137",
"M  c #544235",
"N  c #53453D",
"B  c #58473C",
"V  c #67493A",
"C  c #784737",
"Z  c #78432D",
"A  c #4C4543",
"S  c #4B4745",
"D  c #544A43",
"F  c #5C4C44",
"G  c #534C4A",
"H  c #574A45",
"J  c #5C534D",
"K  c #5B5148",
"L  c #5C5553",
"P  c #614E44",
"I  c #624F48",
"U  c #635146",
"Y  c #64544B",
"T  c #6A564D",
"R  c #6C5A4D",
"E  c #6E5447",
"W  c #645953",
"Q  c #6C5C53",
"!  c #645B58",
"~  c #715E54",
"^  c #745646",
"/  c #6B625A",
"(  c #726256",
")  c #75645A",
"_  c #7A695D",
"`  c #78665B",
"'  c #7C624B",
"]  c #5F5E63",
"[  c #6A6667",
"{  c #766A67",
"}  c #78706B",
"|  c #7C7674",
" . c #756F71",
".. c #685F60",
"X. c #863C26",
"o. c #8D3C1E",
"O. c #884A37",
"+. c #995339",
"@. c #924830",
"#. c #A8553B",
"$. c #A04F3C",
"%. c #A9603F",
"&. c #945947",
"*. c #8A5749",
"=. c #A85B47",
"-. c #B75B45",
";. c #936752",
":. c #AA664B",
">. c #B76649",
",. c #A56B58",
"<. c #B96C55",
"1. c #BA7358",
"2. c #B4714F",
"3. c #846E65",
"4. c #887469",
"5. c #997C6B",
"6. c #867C77",
"7. c #907772",
"8. c #AF7869",
"9. c #C56D55",
"0. c #CD7C5C",
"q. c #C77458",
"w. c #D47A59",
"e. c #C76F4D",
"r. c #C87B62",
"t. c #D67C62",
"y. c #C45E48",
"u. c #95857D",
"i. c #86857D",
"p. c #B38874",
"a. c #DB825C",
"s. c #D4825C",
"d. c #E2865F",
"f. c #C98369",
"g. c #DC8364",
"h. c #D7866A",
"j. c #C88A76",
"k. c #D68A73",
"l. c #C99678",
"z. c #D99479",
"x. c #E48C6C",
"c. c #E58867",
"v. c #E9926D",
"b. c #E78D75",
"n. c #EB9374",
"m. c #E4947C",
"M. c #EB947C",
"N. c #ED9B7C",
"B. c #E89777",
"V. c #F2997A",
"C. c #F29172",
"Z. c #F5A17E",
"A. c #EEA27E",
"S. c #D6A07C",
"D. c #8C8783",
"F. c #988C87",
"G. c #9A9289",
"H. c #969598",
"J. c #908E91",
"K. c #A3958C",
"L. c #A59B97",
"P. c #AC958C",
"I. c #ACA39D",
"U. c #B6A49D",
"Y. c #9A9EA2",
"T. c #ABA7A7",
"R. c #B3ADAC",
"E. c #B4AAA6",
"W. c #BAB7B6",
"Q. c #B6B1AE",
"!. c #D89984",
"~. c #C99787",
"^. c #E59D84",
"/. c #EC9D83",
"(. c #EA9A86",
"). c #F39B85",
"_. c #F69D91",
"`. c #CAA48D",
"'. c #DAA588",
"]. c #DCB398",
"[. c #D2AD95",
"{. c #ECA284",
"}. c #ECA48C",
"|. c #E7A78B",
" X c #F3A384",
".X c #F3A38C",
"XX c #F3AB8B",
"oX c #F6A888",
"OX c #EEAC92",
"+X c #EAAA97",
"@X c #F4AB93",
"#X c #F6A994",
"$X c #EBBC9B",
"%X c #E7B696",
"&X c #F4B29B",
"*X c #F4B798",
"=X c #F4B08D",
"-X c #C3BCBB",
";X c #C6BAB9",
":X c #D5BCAF",
">X c #E4BDA3",
",X c #F7B9A2",
"<X c #EAACA1",
"1X c #F5C19D",
"2X c #EDC09F",
"3X c #C9C1BE",
"4X c #ECC2A4",
"5X c #EAC5AC",
"6X c #E9C5AB",
"7X c #F2C4A4",
"8X c #F3CBAD",
"9X c #F6C6A6",
"0X c #EAC8B5",
"qX c #F2CDB3",
"wX c #F8CFBB",
"eX c #F4D1B5",
"rX c #FCD4B5",
"tX c #F4D4BB",
"yX c #FAD5BB",
"uX c #F6D9BD",
"iX c #FBDABD",
"pX c #FFD8B5",
"aX c #FED0AF",
"sX c #BEBEC0",
"dX c #CAC6C6",
"fX c #D5CCC8",
"gX c #D9D2CE",
"hX c #DBD7D7",
"jX c #CFCFCB",
"kX c #ECDBCD",
"lX c #F5DCC5",
"zX c #FBDDC3",
"xX c #F4DDCA",
"cX c #FADEC9",
"vX c #F5D6C2",
"bX c #E5DCD7",
"nX c #F8DED1",
"mX c #FCE3C5",
"MX c #F6E1CB",
"NX c #FBE3CB",
"BX c #F7E3C5",
"VX c #EAE4DC",
"CX c #F8E5D6",
"ZX c #DADDE2",
"AX c #E1DFE1",
"SX c #DDE4EA",
"DX c #EAE7E6",
"FX c #F4EBE6",
"GX c #FBF4EC",
"HX c #E5EDF3",
"JX c #EDF3F8",
"KX c #FDF6F3",
"LX c #FFFBF4",
"PX c #FEFEFD",
"IX c #F5F8FA",
"UX c #F0F0EB",
/* pixels */
"P P F Y I Y Y T T Q Q T ( Q ( ( Q d d s d d s s s s s M f f z f f f z f s i a i d i d d a d d d a i i i i i i i i i 4 i 7 7 4 4 ",
"u.6.u.u.6.F.6.u.6.u.F.F.u.u.L.G.4.m i d s a s d s s s s f f f f f M z s z s a a a a s s a d d d s d i d d i i i d i i i i 7 7 4 ",
"R.dXW.gX-XjXdXdXgX-XbXdXgXdXbXDXfX/ 4 a a d d s a a s a f f f f f z f f f a s s s s s s s s s s s a a a a p i p a p p p p p i 8 ",
"R.DXdXhXjXjXhXW.DXQ.DXW.hXjXW.UXKXF.4 z f f f M M M B B M z M M M B B B B M M M M M M M M M z M N N k k k k k k k k k k k k k k ",
"dXdXDXdXDXW.UXsXDXjXhXDXjXDXW.UXKXE.k B B B U U T T Y R Y U Y F P P T T Y U Y U U U P U P I P P I F F F H N N N N N N N H H N N ",
"AXR.hXW.hXdXjXhXhXAXjXDXgXbXdXhXbXL.N m B F U T Q Q Q ~ Q T T B B T Q U Y T U U U F F F F F F F F F H H H D N N N n N n N n n m ",
"Q.R.T.R.T.T.W.dXdXdXdX-XW.W.E.Q.Q.T.I.I.L.I.E.U.U.U.P.3.R U Q { Q T 3.F.G.K.G.F.6.{ { [ ! ! ! L J J J G G D D D D S S S S A A n ",
"3X-XdXdXjXhXDXDXDXFXDXVXVXbXbXbXVXFXFXFXFXVXFXkXE.P.4.d 1 , 6 a a * 4 Y { U.:X;XU.G.D.6.} [ { [ [ / / ! ! L J J J G G G G G S S ",
"K.K.K.L.L.I.L.L.K.K.K.G.K.K.K.G.F.F.u.F.u.u.u.Y f , , @ * o % $ % * o o < B ) { Q F H N m j h h 8 8 8 8 8 8 5 5 3 3 3 3 3 3 3 6 ",
"; ; < < < < > : : : > > > > < < < > , , y z d w , , O , 2 o . o o < 2 * o % * > < > * : : : ; ; $ % % % % % % % : % $ $ $ $ $ $ ",
"6 6 6 < < < < < < < < < < < 2 6 < < 2 i z z a 1 * % O % * o     o > % > % O % * 2 < % $ % $ $ $ $ $ $ $ $ $ $ $ : $ $ $ $ $ $ $ ",
"; ; ; ; ; ; > > < > > < < < < > < < < z z y 2 * = = * 1 O X O O @ + O @ * o O O % > > % $ % ; % % % % % % % % % ; % % % % % % $ ",
"6 6 6 6 6 6 2 < 6 6 4 y y 4 4 y 2 1 M V d = * < 4 1 O # - # w w = w X * @ O * % O % 6 2 ; > < > < < < > > > < < > > > > ; > > > ",
"5 5 5 4 5 5 4 4 6 4 4 i i 4 4 y w f V f w @ 1 , = - - e *.;.C r e ,.g X # - + * % % < 2 6 6 > > < < < > > < < < < < < < > < < < ",
"l l n n n n k h j N F K K H D H B V a , , w , # q c &.f.k.^.f.t @.h.r.t e c w # @ O * % 6 p 6 8 8 8 4 5 5 8 8 4 5 5 5 6 6 3 6 6 ",
"dXfXfXfXgXfX;XQ.I.3XhXhXbXbXgXfXU.d * y y w q e O.z.}.@X&X&X&Xz.k.n.M.k.<.:.Z q # @ * o h ! W J J K G D A A n l l l l l l l l l ",
"KXKXLXLXLXKXKXFXgXbXKXKXKXKXGXDX4.< , , , # v 8.|.OX&X&X*X&X&XOX}.{.).B.h.q.:.Z q # @   < W ! L J G G D S A n l l l 9 9 9 9 9 9 ",
"Q.-X-XdXdXdXQ.L.T.;XdXdXdX3X-XF.a 1 1 w w c 8.{.@XOX&X&X&X&X&XOXOX{./.V.n.c.q.:.Z - O o o D L L L J G S S G S A S S A S S A S A ",
"Q.-X-XW.W.Q.T.;X-X-XdXQ.W.-XQ.F.F 1 w = c 8.!.}.@X@X&X&X&X&X@X#X.X.X/.M.n.n.t.1.*.q + * % G  .{ } { [ [ ! / ! ! / !  .D.D.| | | ",
"R.R.E.E.T.L.DXLXKXL.T.T.T.W.R.F.s 1 , - C j.}.}.OX@X&X&X,X&X@X#X.X.X/.N.V.b.k.r.;.e X o o l { ..! L L L L J L L L } J.J.6.6.6.| ",
"D.D.D.D.D.D.Q.LXLXQ.6.D.D.G.G.6.z * O q ,.!.^.#X@X@X&X&X&X&X&XOX#X.X X/.N.M.b.q.:.e # * & 6 K J J n n D D D G D D 6.D.| | | | } ",
"6.} { { { { | VXKXVX6.} { { { Q z , , g ,.!.^.}.&X&X&X*X&X&X@XOX}..X.X/.z.h.r.1.:.c # * & o 3 m l 8 8 8 8 8 8 3 5 D D A A n l n ",
"/ Q Y Y K T J K.LXLXL.K n k N F z , * w &.!.|.z.j.j.j.z.}.#XOXOX@X/.q.@.t v Z O.;.C X   . . 2 8 < 6 3 3 3 3 5 6 < 6 3 3 3 3 3 3 ",
"Q T T I I F K W kXLXfXk p p k N 2 1 * # ,.|.f.+.O.v t @.<.^.@XOX.Xh.#.@.+.&.&.Z v *.O     $ 8 8 6 5 6 3 5 8 3 5 7 8 8 8 8 5 8 5 ",
"( Q T T U J K B 6.kXu.l 7 h N k % = O = p.j.+.:.k.!.f.9.q.b.#XXXB.q.9.q.k.z.k.1.O.O.@   . o 6 6 5 5 3 5 5 8 8 8 7 7 7 7 8 8 5 5 ",
"_ ( ~ T Y U K F F H H m 5 j B F < o o w l.1.1.m.^.r.>.>.q.t./..X0.>.>.#.@.$.=.q.<.O.,     o 6 5 5 8 8 5 5 8 5 5 4 5 5 4 4 4 5 5 ",
"_ _ ) ~ Q Y U F K F F n 8 k I H & o o g j.f.z.1.@.X.X.9.w.b.M.).q.-.9.q.@.X.X.@.<.=.w       < u 5 8 8 5 5 8 4 5 4 4 5 7 7 7 7 7 ",
"3.3.` ) ~ T Y I F F D l ; k F 4 * X + V j.z.k.+.:.q.r.r.b.b.(._.9.>.q.t.r.q.<.$.9.<.c w V # & 5 h h 8 8 8 8 8 8 8 8 i p p i p p ",
"4.3._ ) ( Q Q T U J | G.i.D.Q > w # - c j.^.m.m.k.k.h.b.M.b.(..Xr.q.t.g.g.t.t.g.t.<.X.,.k.O.O 3 h l j 9 8 8 8 8 8 p p j a a a j ",
"7.4.3.{ ) ( Q T Y / -XVXhXFX6.1 r j.~.:.j.^..X.X/./._..XM.m.}.#Xh.9.g.x.C.C.C.b.h.<.=.r.q.<.w p h l n j p p 8 8 8 i p j j j a j ",
"5.4.3.{ ` ( Q T Y ) W.DXjXVXG.w C j.^.z.f.|..X.X(..X.X.X/.m.#X,Xm.9.t.b.C.n.b.b.t.1.:.<.w.r.q 6 n A n l h h p 8 8 p a j j j j k ",
"7.4.} { / / Q Q Y / | i.D.I.6.f &.z.m.z.f.^..X.X#X.X#X/.b.M..X#Xb.9.9.t.V.V.M.b.r.<.:.1.x.r.g 8 A m h h j j h j h a j j k h k k ",
"I.I.I.T.T.T.T.E.E.R.R.T.T.T.R.) *.&X^.h.f.^..X#X.XXX/.M.c.9.0.).9.#.y.t.V.V.C.x.f.<.:.r.b.=.- h n j a x N F H F F F F F K F F I ",
"bXbXhXhXhXAXDXbXbXhXAXhXhXhXfXQ C +X^.^.k.z.}.@X{.{.b.M.9.-.-.r.>.#.@.#.h.V.V.x.f.<.:.1.h.&.X j n m N F T Q Q Q Q Q Q Q / / ~ ~ ",
"I.L.L.H.H.H.H.H.H.J.J.H.J.J.F.T e !.+X.Xk.z./././.B.h.>.=.$.@.=.=.t t v $.k.V.x.q.9.:.>.h.O.O n m n F T Q ( ( ( ` ) ) ) ) ) ` ` ",
" . .[ [ [ [ [ [ ] ] L L L L ! 3.E ~.+X_.k.k.^.N.).h.@.+.=.=.:.<.<.@.@.X.t >.V.x.9.<.<.1.f.e 2 D n n J T ~ ) ) _ ) _ _ _ _ _ _ _ ",
"Q.R.T.Y.Y.Y.H.H.H.Y.jXjXdXW.dXgXK.P.<X.Xk.z.N.N. X>.o.>.q.g.k.k.t.q.9.>.#.o.x.t.q.q.<.!.,.# z H k n U Q ( _ _ ` _ _ _ _ ) _ ` ` ",
"PXJXJXDXSXHXHXSXZXHXPXPXPXLXPXLXVXU.~.,Xz.z.B.N.N.0.=.>.0.h.N.). Xb.t.>.#.e.g.w.0.r.e C c a P F j n U Q ( ) Q M d a d d d i i y ",
"PXIXIXIXJXJXHXHXJXIXIXPXLXLXLXPXPXDX7.5.C j./.N.N.N.m.k.h.k.(.).b.w.y.-.9.V.n.q.h.1.-   1 z H N m N Y Q ( ) U > + + + + + + + + ",
"PXPXPXPXPXJXSXJXPXIXPXPXPXLXPXPXPXPX;X% * 8.^.N.M.oX#X.X_._._._.).b.c.w.c.V.h.q.h.O.X   6 F N B n H T Q ( ( R 1 @ @ @ @ * @ @ @ ",
"PXPXPXPXPXIXZXSXJXIXPXPXPXPXPXPXPXPXUXT.I 5.!./.M.N.#X.X(.(./.).V.C.t.t.v.c.w.s.1.Z % S J H H H n H T Q ) ) R 1 * , , , 1 * * % ",
"PXPXPXPXPXPXJXJXIXPXPXPXPXPXPXPXPXPXUXPXbXp.j.^.B.{..X.X.XM.k.h.g.c.g.n.c.w.w.0.:.Z 8  .! K N N N F T Q ) ) R w = , = 1 > % % % ",
"PXPXPXPXPXPXPXPXIXPXPXPXPXPXPXPXPXPXPXKXLX:X8.k.m././..X#X.X(.m.b.b.N.M.g.w.0.2.:.;.F A n H H n H F T Q ) ) R w , = * = % = > < ",
"PXPXPXPXPXIXPXPXPXPXPXPXPXPXPXPXPXPXPXLXLX0Xj.f.z.m.(..X#X#X.X).).N.).n.0.e.<.>.<.;.X   & h K J J U T ~ ) ) R y = , = < > 6 6 3 ",
"PXLXPXPXPXPXPXPXPXPXPXPXPXPXPXPXLXPXPXLXLX0X'.k.f.k.k.(.XXXX X).N.n.b.g.>.2.>.2.r.&.-     & n J W T Q ~ ) _ R y = 1 1 < % 6 3 8 ",
"PXPXPXPXPXPXPXPXPXPXPXPXPXPXPXPXLXPXPXLXLX0X'.{.f.f.f.h.z.B.M.n.x.h.w.e.>.>.>.0.1.1.p.V     = F W T W Q ) _ R y > 1 < * % ; 0 3 ",
"PXPXPXPXPXPXPXPXPXPXPXPXPXPXPXPXPXIXLXGXnX%X|.XXz.f.0.0.s.s.h.t.0.q.q.e.>.>.e.s.q.:.'.].;.+ 1 F W T Q Q ) ` R y = 1 < ; ; : $ ; ",
"PXPXPXPXPXPXPXPXPXPXPXPXPXPXPXPXPXPXGXCXwX'.|.XX{.h.0.e.0.s.g.t.0.0.e.>.>.e.a.s.0.%.1.%X].5.V f T T Q / ) ` ( i * < < % ; ; : 5 ",
"LXLXPXIXPXIXPXPXPXLXKXPXPXPXPXPXPXKXkXNX>Xp.OX@XXX{.x.s.e.e.w.0.q.e.e.y.e.w.a.a.s.#.@.%X%X`.`.;.B W Q / _ ) Q i % < 6 < ; ; ; < ",
"PXPXIXUXUXUXIXPXIXUXDXUXUXKXPXLXFXkXkXNX~.,.OX@XXXXXN.n.x.g.a.a.w.w.w.e.w.a.a.a.a.>.:.9X%X'.'.].;.B Q ~ ( ) Q 4 % 6 < < < > < 6 ",
"PXPXPXLXPXLXPXPXPXPXPXPXPXLXKXVXxXlXtXNX].p.OX@XXX=X XN.N.n.n.C.v.c.a.w.w.a.d.a.c.>.p.rX$X'.|.$X[.;.^ R ( Q Q y = , * , < 4 i 6 ",
"PXPXPXPXPXPXPXPXIXPXPXIXLXLXGXkXlXuXvXNX].,.OX}.@XXX XA.N.Z.Z.C.C.c.a.w.w.a.c.g.g.>.z.rX7X%X%X$X2X[.`.5.~ T T y * , , , 2 a k m ",
"IXIXPXPXPXPXPXPXPXPXPXLXGXCXkXMXcXlXvXCX~.O.}.@X@X@XXXZ.B.B.Z.Z.C.d.a.a.c.g.c.g.h.+.l.yX4X%X$X7X7X].].>X[.5.E , * , , , 4 4 h A ",
"PXIXPXPXPXIXIXIXPXKXKXFXkXxXNXNXxXlXvXCXp.O.^.}.OX=XXX{.B.x.B.Z.x.a.a.g.x.x.x.g.k.v j.zX>X4X4X4X7X%X$X>X6X>X`.' # O , 1 > 0 9 5 ",
"PXPXPXPXPXLXLXLXGXVXkXnXMXcXNXcXlXcXlXCX,.O.z.{.XXXXXXoX XB.v.x.a.w.c.v.C.v.v.h.f.t j.rX4X4X4X7X8X].4X6X6X6X6X5XP.V O 6 < K 6.K ",
"IXIXPXPXLXLXGXVXkXCXMXxXNXcXcXNXzXlXlXCX8.&.k.m.}.oX=X=XXX{.N.x.g.x.v.n.V.C.x.q.j.v j.yX4X7X7X8X8X>X6XqXqX5XqX6X0X0XF.k u G.6.) ",
"IXIXPXLXGXCXkXxXMXNXMXNXMXcXNXMXBXBXlXCXp.&.j.r..X XXXXXXXXX XN.M.B.N.V.V.n.h.@.!.b p.mXqX8X7X8XqX>X6XeXqXqXqXqX6X0X0X:X5.u.3.( ",
"PXLXLXFXkXkXMXNXNXlXNXBXMXNXlXBXBXBXuXCX8.&.j.O.(.{.}.XX=XXX X X). X{.N./.z.z.O.p.;.8.iX8XrXrXrXrXyX6XeXyXtXtXtXeXqX5XqX0X[.u.~ ",
"LXGXVXkXxXMXcXNXNXMXNXcXtXzXmXmXmXmXmXCX*.8.,.b ,X!.&XXXXXXX X X X XXX*Xz.f.rX|.'.'.l.l.l.l.'.%X$X$X].qXyXtXyXuXqXqXqXqX5X0X0X`.",
"FXVXkXMXcXNXNXNXMXNXcXCXqX[.>X>X4X6X6X6X*.~.;.,.cX,X,.l.&X@XOXOX}.'.j.;.t !.%X$X*X*X*X*X*X%X|.'.S.l.'.8XtXvXyXtXyXeXqXeXeXqX5X6X",
"kXMXMXMXNXNXcXNXNXNXNXNXzXqX%X%X'.|.'.'.'.'.|.'.|.$Xp.r e V C V g w # X ,.9X$X7X9X1X*X*X*X*X*X1X1X$X$X7X8XyXtXvXtXtXtXqXqXqXqX5X",
"MXlXNXNXlXNXNXcXNXNXMXNXNXeX8X7X9X1X7X7X1X2X2X2X$X].8Xp.# X O O O % + 5.rX7X7X7X7X$X9X7X7X9X1X$X$X$X$X$X8XyXyXvXuXuXtXqXqXqXqX5X",
"MXcXcXcXNXNXcXNXNXNXNXMXcXmXzXtXtXiXiXuXrXrX8X8X7X4X4X8X`.r * 1 1 O ' eX7X7X4X8XeXyXyXiXiXyXrXrXrXrXqXeXtXtXiXuXuXiXtXtXqXeXqXqX",
"MXlXNXcXcXNXNXNXBXBXBXBXmXBXBXmXmXNXNXBXmXmXzXiXiXrXpXpXiX[.d 1 = f 6XeX9XaXpXiXzXmXzXiXuXuXuXiXiXyXuXtXtXuXuXuXuXuXiXeXqXeXqXqX"
};
